X:2648
T:Gånglåt efter Ryssmo Ante
S:Efter Anders Rudin, Medelpad
S:Efter Eva Marqvardsen
Z:[[http://www.bluerose.karenlmyers.org/IncipitsGanglat11.html|Karen Myers (#2648)]]
Z:Upptecknad 3/2006
M:2/4
L:1/8
R:Gånglåt
O:Medelpad
K:D
A |: A>d dd | d(e/f/) f(e/d/) | c>A AA | A2 AA | A>c ee | e(f/g/) f(e/c/) |
e>d dd |1 d3 A :|2 d3 f/g/ |: aa fd/f/ | aa fd/f/ | aa fe/d/ |
c>A AA | A>c ee | ef/g/ fe/c/ | e>d dd |1 d3 f/g/ :|2 d3 z |]
